src/assets/duotone/RepeateMusic.svg

<svg width="24" height="24" viewBox="0 0 24 24"  xmlns="http://www.w3.org/2000/svg">
<path opacity="0.4" d="M3.66 16.9314C3.47 16.9314 3.28 16.8614 3.13 16.7114C1.76 15.3314 1 13.5114 1 11.5814C1 7.57141 4.25 4.31139 8.25 4.31139L14.32 4.33141L13.23 3.29137C12.93 3.00137 12.92 2.53137 13.21 2.23137C13.5 1.93137 13.97 1.92141 14.27 2.21141L16.71 4.55138C16.93 4.76138 17 5.09139 16.89 5.37139C16.78 5.65139 16.5 5.84142 16.19 5.84142L8.24001 5.8214C5.07001 5.8214 2.49001 8.41142 2.49001 11.5914C2.49001 13.1214 3.08999 14.5714 4.17999 15.6614C4.46999 15.9514 4.46999 16.4314 4.17999 16.7214C4.03999 16.8614 3.85 16.9314 3.66 16.9314Z" />
<path opacity="0.4" d="M9.7499 21.5014C9.5599 21.5014 9.3799 21.4314 9.2299 21.2914L6.7899 18.9514C6.5699 18.7414 6.4999 18.4114 6.6099 18.1314C6.7199 17.8514 6.9999 17.6614 7.3099 17.6614L15.2599 17.6814C18.4299 17.6814 21.0099 15.0914 21.0099 11.9114C21.0099 10.3814 20.4099 8.93146 19.3199 7.84146C19.0299 7.55146 19.0299 7.07146 19.3199 6.78146C19.6099 6.49146 20.0899 6.49146 20.3799 6.78146C21.7499 8.16146 22.5099 9.98141 22.5099 11.9114C22.5099 15.9214 19.2599 19.1814 15.2599 19.1814L9.1899 19.1614L10.2799 20.2014C10.5799 20.4914 10.5899 20.9614 10.2999 21.2614C10.1399 21.4214 9.9499 21.5014 9.7499 21.5014Z" />
<path d="M9 15.5H15C16.93 15.5 18.5 13.92 18.5 12C18.5 10.08 16.93 8.5 15 8.5H9C7.07 8.5 5.5 10.08 5.5 12C5.5 13.92 7.07 15.5 9 15.5Z" />
</svg>

<?xml version="1.0" encoding="UTF-8"?>
<svg width="24" height="24" viewBox="0 0 24 24" xmlns="http://www.w3.org/2000/svg">
 <path d="m3.66 16.931c-0.19 0-0.38-0.07-0.53-0.22-1.37-1.38-2.13-3.2-2.13-5.13 0-4.01 3.25-7.27 7.25-7.27l6.07 0.02002-1.09-1.04c-0.3-0.29-0.31-0.76-0.02-1.06s0.76-0.30996 1.06-0.01996l2.44 2.34c0.22 0.21 0.29 0.54001 0.18 0.82001s-0.39 0.47003-0.7 0.47003l-7.95-0.02002c-3.17 0-5.75 2.59-5.75 5.77 0 1.53 0.59998 2.98 1.69 4.07 0.29 0.29 0.29 0.77 0 1.06-0.14 0.14-0.32999 0.21-0.51999 0.21z" opacity=".4"/>
 <path d="m9.7499 21.501c-0.19 0-0.37-0.07-0.52-0.21l-2.44-2.34c-0.22-0.21-0.29-0.54-0.18-0.82s0.39-0.47 0.7-0.47l7.95 0.02c3.17 0 5.75-2.59 5.75-5.77 0-1.53-0.6-2.9799-1.69-4.0699-0.29-0.29-0.29-0.77 0-1.06s0.77-0.29 1.06 0c1.37 1.38 2.13 3.2 2.13 5.1299 0 4.01-3.25 7.27-7.25 7.27l-6.07-0.02 1.09 1.04c0.3 0.29 0.31 0.76 0.02 1.06-0.16 0.16-0.35 0.24-0.55 0.24z" opacity=".4"/>
 <path d="m9 15.5h6c1.93 0 3.5-1.58 3.5-3.5s-1.57-3.5-3.5-3.5h-6c-1.93 0-3.5 1.58-3.5 3.5s1.57 3.5 3.5 3.5z"/>
</svg>
